icon/section-education.svg

<svg xmlns="http://www.w3.org/2000/svg" height="512pt" version="1.1" viewBox="0 0 512 512" width="512pt">
<g id="surface1">
<path d="M 512 256 C 512 397.386719 397.386719 512 256 512 C 114.613281 512 0 397.386719 0 256 C 0 114.613281 114.613281 0 256 0 C 397.386719 0 512 114.613281 512 256 Z M 512 256 " style=" stroke:none;fill-rule:nonzero;fill:rgb(100%,91.372549%,33.333333%);fill-opacity:1;" />
<path d="M 512 256 C 512 282.050781 508.109375 307.191406 500.871094 330.871094 C 468.859375 435.71875 371.328125 512 256 512 C 151.441406 512 61.511719 449.300781 21.769531 359.449219 C 7.769531 327.820312 0 292.820312 0 256 C 0 209.78125 12.25 166.429688 33.679688 129 C 77.800781 206.070312 160.839844 258 256 258 C 351.160156 258 434.210938 206.070312 478.320312 129 C 499.75 166.429688 512 209.78125 512 256 Z M 512 256 " style=" stroke:none;fill-rule:nonzero;fill:rgb(100%,81.960784%,7.058824%);fill-opacity:1;" />
<path d="M 30.742188 377.703125 C 37.898438 390.921875 46.171875 403.441406 55.460938 415.128906 C 102.359375 474.148438 174.761719 512 256 512 C 337.238281 512 409.640625 474.148438 456.539062 415.128906 C 465.828125 403.441406 474.101562 390.921875 481.257812 377.703125 Z M 30.742188 377.703125 " style=" stroke:none;fill-rule:nonzero;fill:rgb(100%,62.352941%,0%);fill-opacity:1;" />
<path d="M 351.808594 146.148438 L 351.808594 493.460938 C 322.21875 505.421875 289.878906 512 256.011719 512 L 256 512 C 238.828125 512 222.050781 510.308594 205.820312 507.078125 C 190.039062 503.949219 174.78125 499.359375 160.191406 493.460938 L 160.191406 146.148438 Z M 351.808594 146.148438 " style=" stroke:none;fill-rule:nonzero;fill:rgb(100%,100%,100%);fill-opacity:1;" />
<path d="M 351.808594 146.148438 L 351.808594 493.460938 C 322.21875 505.421875 289.878906 512 256.011719 512 L 256 512 C 238.828125 512 222.050781 510.308594 205.820312 507.078125 L 205.820312 146.148438 Z M 351.808594 146.148438 " style=" stroke:none;fill-rule:nonzero;fill:rgb(81.568627%,96.470588%,100%);fill-opacity:1;" />
<path d="M 351.808594 146.148438 L 351.808594 493.460938 C 322.21875 505.421875 289.878906 512 256.011719 512 L 256.011719 146.148438 Z M 351.808594 146.148438 " style=" stroke:none;fill-rule:nonzero;fill:rgb(56.078431%,78.823529%,96.862745%);fill-opacity:1;" />
<path d="M 351.808594 146.148438 L 351.808594 146.1875 C 351.757812 167.320312 308.890625 184.453125 256.011719 184.453125 C 237.613281 184.453125 220.417969 182.371094 205.816406 178.78125 C 178.78125 172.121094 160.636719 160.238281 160.199219 146.664062 C 160.1875 146.496094 160.1875 146.316406 160.1875 146.152344 C 160.1875 124.992188 203.097656 107.851562 256.011719 107.851562 C 308.929688 107.851562 351.808594 124.992188 351.808594 146.148438 Z M 351.808594 146.148438 " style=" stroke:none;fill-rule:nonzero;fill:rgb(56.078431%,78.823529%,96.862745%);fill-opacity:1;" />
<path d="M 351.808594 146.148438 L 351.808594 146.1875 C 351.757812 167.320312 308.890625 184.453125 256.011719 184.453125 C 237.613281 184.453125 220.417969 182.371094 205.816406 178.78125 L 205.816406 146.152344 L 351.808594 146.152344 Z M 351.808594 146.148438 " style=" stroke:none;fill-rule:nonzero;fill:rgb(5.882353%,60.784314%,90.980392%);fill-opacity:1;" />
<path d="M 351.808594 146.148438 L 351.808594 146.175781 C 351.808594 146.382812 351.796875 146.585938 351.785156 146.777344 L 351.746094 147.242188 C 350.320312 162.84375 318.230469 175.328125 278.824219 175.328125 C 268.019531 175.328125 257.78125 174.390625 248.554688 172.710938 C 223.625 168.167969 206.199219 158.171875 205.828125 146.535156 C 205.816406 146.421875 205.816406 146.277344 205.816406 146.148438 C 205.816406 130.035156 238.507812 116.972656 278.824219 116.972656 C 319.140625 116.972656 351.808594 130.035156 351.808594 146.148438 Z M 351.808594 146.148438 " style=" stroke:none;fill-rule:nonzero;fill:rgb(39.607843%,69.803922%,100%);fill-opacity:1;" />
<path d="M 300.191406 166.78125 C 281.179688 166.78125 264.574219 162.675781 255.613281 156.558594 L 255.613281 173.820312 C 262.90625 174.796875 270.707031 175.328125 278.824219 175.328125 C 318.230469 175.328125 350.320312 162.84375 351.746094 147.238281 C 350.335938 158.121094 327.804688 166.78125 300.191406 166.78125 Z M 300.191406 166.78125 " style=" stroke:none;fill-rule:nonzero;fill:rgb(0%,40%,90.980392%);fill-opacity:1;" />
<path d="M 351.8125 311.199219 L 351.8125 377.980469 C 351.8125 399.128906 308.921875 416.277344 256.007812 416.277344 C 237.605469 416.277344 220.414062 414.203125 205.816406 410.609375 C 178.441406 403.863281 160.191406 391.769531 160.191406 377.980469 L 160.191406 311.199219 C 160.191406 324.988281 178.441406 337.085938 205.816406 343.832031 C 220.414062 347.425781 237.605469 349.5 256.007812 349.5 C 308.921875 349.5 351.8125 332.347656 351.8125 311.199219 Z M 351.8125 311.199219 " style=" stroke:none;fill-rule:nonzero;fill:rgb(100%,20.392157%,27.058824%);fill-opacity:1;" />
<path d="M 351.8125 311.199219 L 351.8125 377.980469 C 351.8125 399.128906 308.921875 416.277344 256.007812 416.277344 C 237.605469 416.277344 220.414062 414.203125 205.816406 410.609375 L 205.816406 343.832031 C 220.414062 347.425781 237.605469 349.5 256.007812 349.5 C 308.921875 349.5 351.8125 332.347656 351.8125 311.199219 Z M 351.8125 311.199219 " style=" stroke:none;fill-rule:nonzero;fill:rgb(86.666667%,7.058824%,39.607843%);fill-opacity:1;" />
<path d="M 399.425781 388.6875 L 407.285156 434.472656 L 327.308594 362.722656 L 341.734375 338.21875 L 443.273438 373.351562 Z M 399.425781 388.6875 " style=" stroke:none;fill-rule:nonzero;fill:rgb(86.666667%,7.058824%,39.607843%);fill-opacity:1;" />
<path d="M 407.285156 434.472656 L 327.308594 362.722656 L 334.523438 350.46875 L 399.425781 388.6875 Z M 407.285156 434.472656 " style=" stroke:none;fill-rule:nonzero;fill:rgb(72.941176%,5.098039%,36.078431%);fill-opacity:1;" />
<path d="M 410.9375 311.175781 L 454.308594 327.8125 L 351.773438 359.910156 L 338.078125 334.988281 L 420.148438 265.648438 Z M 410.9375 311.175781 " style=" stroke:none;fill-rule:nonzero;fill:rgb(86.666667%,7.058824%,39.607843%);fill-opacity:1;" />
<path d="M 454.308594 327.8125 L 351.773438 359.910156 L 344.925781 347.449219 L 410.9375 311.175781 Z M 454.308594 327.8125 " style=" stroke:none;fill-rule:nonzero;fill:rgb(100%,20.392157%,27.058824%);fill-opacity:1;" />
<path d="M 351.8125 311.199219 L 351.8125 377.980469 C 351.8125 399.128906 308.921875 416.277344 256.007812 416.277344 L 256.007812 349.5 C 308.921875 349.5 351.8125 332.347656 351.8125 311.199219 Z M 351.8125 311.199219 " style=" stroke:none;fill-rule:nonzero;fill:rgb(72.941176%,5.098039%,36.078431%);fill-opacity:1;" />
</g>
</svg>

<svg xmlns="http://www.w3.org/2000/svg" height="512pt" viewBox="0 0 512 512" width="512pt"><path d="M512 256c0 141.387-114.613 256-256 256S0 397.387 0 256 114.613 0 256 0s256 114.613 256 256zm0 0" fill="#ffe955"/><path d="M512 256c0 26.05-3.89 51.191-11.129 74.871C468.86 435.72 371.328 512 256 512c-104.559 0-194.488-62.7-234.23-152.55C7.77 327.82 0 292.82 0 256c0-46.219 12.25-89.57 33.68-127C77.8 206.07 160.84 258 256 258s178.21-51.93 222.32-129C499.75 166.43 512 209.781 512 256zm0 0" fill="#ffd112"/><path d="M30.742 377.703a256.084 256.084 0 0 0 24.719 37.426C102.359 474.149 174.76 512 256 512c81.238 0 153.64-37.852 200.54-96.871a256.084 256.084 0 0 0 24.718-37.426zm0 0" fill="#ff9f00"/><path d="M351.809 146.148v347.313C322.219 505.42 289.879 512 256.012 512H256a256.85 256.85 0 0 1-50.18-4.922 252.946 252.946 0 0 1-45.629-13.617V146.148zm0 0" fill="#fff"/><path d="M351.809 146.148v347.313C322.219 505.42 289.879 512 256.012 512H256a256.85 256.85 0 0 1-50.18-4.922v-360.93zm0 0" fill="#d0f6ff"/><path d="M351.809 146.148v347.313C322.219 505.42 289.879 512 256.012 512V146.148zm0 0" fill="#8fc9f7"/><path d="M351.809 146.148v.04c-.051 21.132-42.918 38.265-95.797 38.265-18.399 0-35.594-2.082-50.196-5.672-27.035-6.66-45.18-18.543-45.617-32.117-.012-.168-.012-.348-.012-.512 0-21.16 42.91-38.3 95.825-38.3 52.918 0 95.797 17.14 95.797 38.296zm0 0" fill="#8fc9f7"/><path d="M351.809 146.148v.04c-.051 21.132-42.918 38.265-95.797 38.265-18.399 0-35.594-2.082-50.196-5.672v-32.629H351.81zm0 0" fill="#0f9be8"/><path d="M351.809 146.148v.028c0 .207-.012.41-.024.601l-.039.465c-1.426 15.602-33.516 28.086-72.922 28.086-10.804 0-21.043-.937-30.27-2.617-24.929-4.543-42.355-14.54-42.726-26.176-.012-.113-.012-.258-.012-.387 0-16.113 32.692-29.175 73.008-29.175 40.317 0 72.985 13.062 72.985 29.175zm0 0" fill="#65b2ff"/><path d="M300.191 166.781c-19.011 0-35.617-4.105-44.578-10.222v17.261c7.293.977 15.094 1.508 23.211 1.508 39.406 0 71.496-12.484 72.922-28.09-1.41 10.883-23.941 19.543-51.555 19.543zm0 0" fill="#0066e8"/><path d="M351.813 311.2v66.78c0 21.149-42.891 38.297-95.805 38.297-18.403 0-35.594-2.074-50.192-5.668-27.375-6.746-45.625-18.84-45.625-32.629V311.2c0 13.788 18.25 25.886 45.625 32.632 14.598 3.594 31.79 5.668 50.192 5.668 52.914 0 95.805-17.152 95.805-38.3zm0 0" fill="#ff3445"/><path d="M351.813 311.2v66.78c0 21.149-42.891 38.297-95.805 38.297-18.403 0-35.594-2.074-50.192-5.668v-66.777c14.598 3.594 31.79 5.668 50.192 5.668 52.914 0 95.805-17.152 95.805-38.3zm0 0" fill="#dd1265"/><path d="M399.426 388.688l7.86 45.785-79.977-71.75 14.425-24.504 101.54 35.133zm0 0" fill="#dd1265"/><path d="M407.285 434.473l-79.976-71.75 7.214-12.254 64.903 38.219zm0 0" fill="#ba0d5c"/><path d="M410.938 311.176l43.37 16.637-102.535 32.097-13.695-24.922 82.07-69.34zm0 0" fill="#dd1265"/><path d="M454.309 327.813L351.773 359.91l-6.847-12.46 66.012-36.274zm0 0" fill="#ff3445"/><path d="M351.813 311.2v66.78c0 21.149-42.891 38.297-95.805 38.297V349.5c52.914 0 95.805-17.152 95.805-38.3zm0 0" fill="#ba0d5c"/></svg>
